static/assets/smallElement/two.svg

<svg width="121" height="142" viewBox="0 0 121 142" fill="none" xmlns="http://www.w3.org/2000/svg">
<g filter="url(#filter0_d)">
<path d="M98.1109 52.8C98.1109 60.7333 94.7509 67.5933 88.0309 73.38C85.9776 75.1533 83.7376 76.9267 81.3109 78.7L51.2109 100.4H98.1109V120H22.5109V93.4L72.9109 57V50C72.9109 44.4 70.1109 41.6 64.5109 41.6H25.3109V22H70.1109C79.9109 22 87.0043 24.24 91.3909 28.72C95.8709 33.1067 98.1109 40.2 98.1109 50V52.8Z" fill="black"/>
<path d="M88.0309 73.38L86.7259 71.8645L86.7237 71.8664L88.0309 73.38ZM81.3109 78.7L82.4806 80.3224L82.491 80.3148L81.3109 78.7ZM51.2109 100.4L50.0413 98.7776L45.0168 102.4H51.2109V100.4ZM98.1109 100.4H100.111V98.4H98.1109V100.4ZM98.1109 120V122H100.111V120H98.1109ZM22.5109 120H20.5109V122H22.5109V120ZM22.5109 93.4L21.34 91.7786L20.5109 92.3774V93.4H22.5109ZM72.9109 57L74.0819 58.6214L74.9109 58.0226V57H72.9109ZM25.3109 41.6H23.3109V43.6H25.3109V41.6ZM25.3109 22V20H23.3109V22H25.3109ZM91.3909 28.72L89.9619 30.1192L89.9766 30.1343L89.9917 30.149L91.3909 28.72ZM96.1109 52.8C96.1109 60.0783 93.063 66.4075 86.7259 71.8645L89.336 74.8955C96.4389 68.7791 100.111 61.3883 100.111 52.8H96.1109ZM86.7237 71.8664C84.7155 73.6007 82.5184 75.3405 80.1309 77.0852L82.491 80.3148C84.9568 78.5128 87.2397 76.7059 89.3382 74.8936L86.7237 71.8664ZM80.1413 77.0776L50.0413 98.7776L52.3805 102.022L82.4805 80.3224L80.1413 77.0776ZM51.2109 102.4H98.1109V98.4H51.2109V102.4ZM96.1109 100.4V120H100.111V100.4H96.1109ZM98.1109 118H22.5109V122H98.1109V118ZM24.5109 120V93.4H20.5109V120H24.5109ZM23.6819 95.0214L74.0819 58.6214L71.74 55.3786L21.34 91.7786L23.6819 95.0214ZM74.9109 57V50H70.9109V57H74.9109ZM74.9109 50C74.9109 46.8917 74.1325 44.1931 72.2252 42.2858C70.3178 40.3784 67.6192 39.6 64.5109 39.6V43.6C67.0027 43.6 68.5041 44.2216 69.3967 45.1142C70.2894 46.0069 70.9109 47.5083 70.9109 50H74.9109ZM64.5109 39.6H25.3109V43.6H64.5109V39.6ZM27.3109 41.6V22H23.3109V41.6H27.3109ZM25.3109 24H70.1109V20H25.3109V24ZM70.1109 24C79.6684 24 86.1172 26.1927 89.9619 30.1192L92.82 27.3207C87.8914 22.2873 80.1535 20 70.1109 20V24ZM89.9917 30.149C93.9182 33.9938 96.1109 40.4426 96.1109 50H100.111C100.111 39.9574 97.8236 32.2196 92.7902 27.291L89.9917 30.149ZM96.1109 50V52.8H100.111V50H96.1109Z" fill="white"/>
</g>
<defs>
<filter id="filter0_d" x="0.510986" y="0" width="119.6" height="142" filterUnits="userSpaceOnUse" color-interpolation-filters="sRGB">
<feFlood flood-opacity="0" result="BackgroundImageFix"/>
<feColorMatrix in="SourceAlpha" type="matrix" values="0 0 0 0 0 0 0 0 0 0 0 0 0 0 0 0 0 0 127 0"/>
<feOffset/>
<feGaussianBlur stdDeviation="10"/>
<feColorMatrix type="matrix" values="0 0 0 0 0.733333 0 0 0 0 0.52549 0 0 0 0 0.988235 0 0 0 1 0"/>
<feBlend mode="normal" in2="BackgroundImageFix" result="effect1_dropShadow"/>
<feBlend mode="normal" in="SourceGraphic" in2="effect1_dropShadow" result="shape"/>
</filter>
</defs>
</svg>

<?xml version="1.0" encoding="UTF-8" standalone="no"?>
<svg width="121" xmlns="http://www.w3.org/2000/svg" fill="none" viewBox="0 0 121 142" height="142">
 <g filter="url(#filter0_d)">
  <path d="m98.111 52.8c0 7.933-3.36 14.793-10.08 20.58-2.053 1.773-4.293 3.547-6.72 5.32l-30.1 21.7h46.9v19.6h-75.6v-26.6l50.4-36.4v-7c0-5.6-2.8-8.4-8.4-8.4h-39.2v-19.6h44.8c9.8 0 16.893 2.24 21.28 6.72 4.48 4.387 6.72 11.48 6.72 21.28v2.8z" fill="#000"/>
  <path d="m88.031 73.38l-1.305-1.516-0.002 0.002 1.307 1.514zm-6.72 5.32l1.17 1.622 0.01-0.007-1.18-1.615zm-30.1 21.7l-1.17-1.622-5.024 3.622h6.194v-2zm46.9 0h1.999v-2h-1.999v2zm0 19.6v2h1.999v-2h-1.999zm-75.6 0h-2v2h2v-2zm0-26.6l-1.171-1.621-0.829 0.598v1.023h2zm50.4-36.4l1.171 1.621 0.829-0.598v-1.023h-2zm-47.6-15.4h-2v2h2v-2zm0-19.6v-2h-2v2h2zm66.08 6.72l-1.429 1.399 0.015 0.015 0.015 0.015 1.399-1.429zm4.72 24.08c0 7.278-3.048 13.608-9.385 19.064l2.61 3.032c7.103-6.117 10.774-13.508 10.774-22.096h-3.999zm-9.387 19.066c-2.008 1.735-4.206 3.474-6.593 5.219l2.36 3.23c2.466-1.802 4.749-3.609 6.847-5.421l-2.614-3.028zm-6.583 5.212l-30.1 21.7 2.339 3.242 30.1-21.698-2.339-3.244zm-28.93 25.322h46.9v-4h-46.9v4zm44.9-2v19.6h3.999v-19.6h-3.999zm2 17.6h-75.6v4h75.6v-4zm-73.6 2v-26.6h-4v26.6h4zm-0.829-24.979l50.4-36.4-2.342-3.242-50.4 36.4 2.342 3.242zm51.229-38.021v-7h-4v7h4zm0-7c0-3.108-0.779-5.807-2.686-7.714-1.907-1.908-4.606-2.686-7.714-2.686v4c2.492 0 3.993 0.622 4.886 1.514 0.892 0.893 1.514 2.394 1.514 4.886h4zm-10.4-10.4h-39.2v4h39.2v-4zm-37.2 2v-19.6h-4v19.6h4zm-2-17.6h44.8v-4h-44.8v4zm44.8 0c9.557 0 16.006 2.193 19.851 6.119l2.858-2.798c-4.929-5.034-12.666-7.321-22.709-7.321v4zm19.881 6.149c3.926 3.845 6.119 10.294 6.119 19.851h3.999c0-10.043-2.286-17.78-7.32-22.709l-2.798 2.858zm6.119 19.851v2.8h3.999v-2.8h-3.999z" fill="#fff"/>
 </g>
 <defs>
  <filter id="filter0_d" height="142" width="119.6" color-interpolation-filters="sRGB" y="0" x=".51099" filterUnits="userSpaceOnUse">
   <feFlood flood-opacity="0" result="BackgroundImageFix"/>
   <feColorMatrix values="0 0 0 0 0 0 0 0 0 0 0 0 0 0 0 0 0 0 127 0" type="matrix" in="SourceAlpha"/>
   <feOffset/>
   <feGaussianBlur stdDeviation="10"/>
   <feColorMatrix values="0 0 0 0 0.733333 0 0 0 0 0.52549 0 0 0 0 0.988235 0 0 0 1 0" type="matrix"/>
   <feBlend mode="normal" in2="BackgroundImageFix" result="effect1_dropShadow"/>
   <feBlend result="shape" mode="normal" in2="effect1_dropShadow" in="SourceGraphic"/>
  </filter>
 </defs>
</svg>
